svgs/thin/circle-envelope.svg

<svg xmlns="http://www.w3.org/2000/svg" viewBox="0 0 512 512"><!-- Font Awesome Pro 6.0.0-alpha2 by @fontawesome - https://fontawesome.com License - https://fontawesome.com/license (Commercial License) --><path d="M352 160H160C142.326 160 128 174.326 128 192V320C128 337.672 142.326 352 160 352H352C369.674 352 384 337.672 384 320V192C384 174.326 369.674 160 352 160ZM368 320C368 328.822 360.822 336 352 336H160C151.178 336 144 328.822 144 320V236.734L238.125 283.797C243.719 286.594 249.844 288 256 288S268.281 286.594 273.875 283.797L368 236.734V320ZM368 218.859L266.75 269.484C260 272.859 252 272.859 245.25 269.484L144 218.859V192C144 183.178 151.178 176 160 176H352C360.822 176 368 183.178 368 192V218.859ZM256 16C123.451 16 16 123.451 16 256S123.451 496 256 496S496 388.549 496 256S388.549 16 256 16ZM256 480C132.486 480 32 379.514 32 256S132.486 32 256 32S480 132.486 480 256S379.514 480 256 480Z"/></svg>

<svg xmlns="http://www.w3.org/2000/svg" viewBox="0 0 512 512"><!--! Font Awesome Pro 6.3.0 by @fontawesome - https://fontawesome.com License - https://fontawesome.com/license (Commercial License) Copyright 2023 Fonticons, Inc. --><path d="M352 160H160C142.3 160 128 174.3 128 192v128c0 17.67 14.33 32 32 32h192c17.67 0 32-14.33 32-32V192C384 174.3 369.7 160 352 160zM368 320c0 8.822-7.178 16-16 16H160c-8.822 0-16-7.178-16-16V236.7l94.13 47.06C243.7 286.6 249.8 288 256 288s12.28-1.406 17.88-4.203L368 236.7V320zM368 218.9l-101.3 50.63c-6.75 3.375-14.75 3.375-21.5 0L144 218.9V192c0-8.822 7.178-16 16-16h192c8.822 0 16 7.178 16 16V218.9zM256 0C114.6 0 0 114.6 0 256c0 141.4 114.6 256 256 256s256-114.6 256-256C512 114.6 397.4 0 256 0zM256 496c-132.3 0-240-107.7-240-240S123.7 16 256 16s240 107.7 240 240S388.3 496 256 496z"/></svg>
